docs/.vitepress/dist/vitepress.svg

<svg viewBox="0 0 160 192" fill="none" xmlns="http://www.w3.org/2000/svg">
  <g clip-path="url(#clip0_1288_1252)">
    <path d="M0.12699 43.8989C-0.863275 37.1255 4.04575 30.863 11.0915 29.911L113.152 16.1221C120.197 15.1702 126.712 19.8893 127.702 26.6627L147.873 164.635C148.863 171.409 143.954 177.671 136.908 178.623L39.1006 191.837C29.7063 193.107 21.0203 186.814 19.7001 177.784L0.12699 43.8989Z" fill="url(#paint0_linear_1288_1252)"/>
    <path d="M10.1376 30.5728C9.06487 22.8787 14.3827 15.7647 22.0152 14.6834L124.678 0.138664C132.31 -0.942678 139.367 4.41806 140.44 12.1122L159.862 151.427C160.935 159.121 155.617 166.235 147.985 167.317L45.3224 181.861C37.6899 182.943 30.6329 177.582 29.5602 169.888L10.1376 30.5728Z" fill="url(#paint1_linear_1288_1252)"/>
    <path d="M19.0979 33.7417C18.3346 28.2753 22.1183 23.221 27.5489 22.4527L121.946 9.09852C127.376 8.33025 132.397 12.1389 133.161 17.6054L151.402 148.258C152.165 153.725 148.382 158.779 142.951 159.547L48.5544 172.901C43.1238 173.67 38.1027 169.861 37.3394 164.395L19.0979 33.7417Z" fill="white"/>
    <path d="M118.649 103.244L56.8226 111.376C54.3836 111.697 52.6843 113.807 53.027 116.09L57.0613 142.955C57.4041 145.237 59.6591 146.827 62.0981 146.507L123.924 138.375C126.363 138.054 128.063 135.943 127.72 133.661L123.686 106.796C123.343 104.513 121.088 102.923 118.649 103.244Z" stroke="url(#paint2_linear_1288_1252)" stroke-width="4"/>
    <path d="M64.6477 140.356L61.2921 117.143L68.5741 116.148L77.0898 123.687L83.1382 114.157L90.4202 113.163L93.7764 136.375L86.4939 137.37L84.5693 124.057L78.5209 133.587L70.0052 126.047L71.9298 139.36L64.6477 140.356ZM110.16 134.136L97.609 124.365L104.891 123.369L103.163 111.421L110.446 110.427L112.173 122.374L119.455 121.379L110.16 134.136Z" fill="url(#paint3_linear_1288_1252)"/>
    <path d="M106.461 37.6734L85.0897 89.1815C84.6484 90.245 83.1468 90.4541 82.4101 89.555L46.5625 45.7851C45.76 44.8053 46.5412 43.3811 47.858 43.4233L76.9122 44.3556C77.0976 44.3617 77.2828 44.3363 77.459 44.2807L104.529 35.76C105.778 35.3669 106.94 36.518 106.461 37.6734Z" fill="url(#paint4_linear_1288_1252)"/>
    <path d="M88.8117 31.4996L68.4122 38.2029C68.0769 38.313 67.8619 38.6223 67.8893 38.955L69.591 59.6271C69.6311 60.114 70.1569 60.4249 70.6418 60.2485L76.2932 58.1908C76.8221 57.9984 77.3816 58.3843 77.3448 58.9164L76.7769 67.1425C76.7388 67.6961 77.3423 68.0835 77.8772 67.8484L81.3316 66.3297C81.8672 66.0943 82.4715 66.4829 82.4319 67.0371L81.508 79.9629C81.4502 80.7715 82.6224 81.0495 82.987 80.3136L83.2305 79.8222L95.63 45.426C95.8377 44.85 95.2552 44.3043 94.6453 44.503L88.7963 46.4074C88.2468 46.5862 87.6946 46.1564 87.778 45.615L89.8327 32.2912C89.9162 31.7488 89.3612 31.3188 88.8117 31.4996Z" fill="url(#paint5_linear_1288_1252)"/>
  </g>
  <defs>
    <linearGradient id="paint0_linear_1288_1252" x1="0.447599" y1="16.413" x2="148.448" y2="191.541" gradientUnits="userSpaceOnUse">
      <stop stop-color="#508AB7"/>
      <stop offset="1" stop-color="#2D1342"/>
    </linearGradient>
    <linearGradient id="paint1_linear_1288_1252" x1="11.1858" y1="19.1536" x2="158.875" y2="162.67" gradientUnits="userSpaceOnUse">
      <stop stop-color="#49C7FF"/>
      <stop offset="1" stop-color="#BD36FF"/>
    </linearGradient>
    <linearGradient id="paint2_linear_1288_1252" x1="56.6798" y1="114.377" x2="122.209" y2="145.088" gradientUnits="userSpaceOnUse">
      <stop stop-color="#49C8FF"/>
      <stop offset="1" stop-color="#BE35FF"/>
    </linearGradient>
    <linearGradient id="paint3_linear_1288_1252" x1="61.7655" y1="117.538" x2="121.328" y2="133.876" gradientUnits="userSpaceOnUse">
      <stop stop-color="#4BC7FF"/>
      <stop offset="1" stop-color="#B93DFF"/>
    </linearGradient>
    <linearGradient id="paint4_linear_1288_1252" x1="45.2957" y1="42.0327" x2="84.5852" y2="84.667" gradientUnits="userSpaceOnUse">
      <stop stop-color="#41D1FF"/>
      <stop offset="1" stop-color="#BD34FE"/>
    </linearGradient>
    <linearGradient id="paint5_linear_1288_1252" x1="73.8285" y1="34.5977" x2="85.1242" y2="75.2134" gradientUnits="userSpaceOnUse">
      <stop stop-color="#FFEA83"/>
      <stop offset="0.0833333" stop-color="#FFDD35"/>
      <stop offset="1" stop-color="#FFA800"/>
    </linearGradient>
      <clipPath id="clip0_1288_1252">
      <rect width="160" height="192" fill="white"/>
    </clipPath>
  </defs>
</svg>

<svg xmlns="http://www.w3.org/2000/svg" fill="none" viewBox="0 0 160 192"><g clip-path="url(#a)"><path fill="url(#b)" d="M.127 43.899c-.99-6.773 3.919-13.036 10.965-13.988l102.06-13.789c7.045-.952 13.56 3.767 14.55 10.54l20.171 137.973c.99 6.774-3.919 13.036-10.965 13.988l-97.807 13.214c-9.395 1.27-18.08-5.023-19.4-14.053z"/><path fill="url(#c)" d="M10.138 30.573c-1.073-7.694 4.245-14.808 11.877-15.89L124.678.14c7.632-1.082 14.689 4.28 15.762 11.973l19.422 139.315c1.073 7.694-4.245 14.808-11.877 15.89L45.322 181.861c-7.632 1.082-14.69-4.279-15.762-11.973z"/><path fill="#fff" d="M19.098 33.742c-.763-5.467 3.02-10.521 8.45-11.29L121.947 9.1c5.43-.769 10.451 3.04 11.215 8.506l18.241 130.653c.763 5.467-3.02 10.521-8.451 11.289l-94.397 13.354c-5.43.769-10.451-3.04-11.215-8.506z"/><path stroke="url(#d)" stroke-width="4" d="m118.649 103.244-61.826 8.132c-2.44.321-4.139 2.431-3.796 4.714l4.034 26.865c.343 2.282 2.598 3.872 5.037 3.552l61.826-8.132c2.439-.321 4.139-2.432 3.796-4.714l-4.034-26.865c-.343-2.283-2.598-3.873-5.037-3.552Z"/><path fill="url(#e)" d="m64.648 140.356-3.356-23.213 7.282-.995 8.516 7.539 6.048-9.53 7.282-.994 3.356 23.212-7.282.995-1.925-13.313-6.048 9.53-8.516-7.54 1.925 13.313zm45.512-6.22-12.551-9.771 7.282-.996-1.728-11.948 7.283-.994 1.727 11.947 7.282-.995z"/><path fill="url(#f)" d="M106.461 37.673 85.09 89.182c-.442 1.063-1.943 1.272-2.68.373l-35.847-43.77c-.803-.98-.022-2.404 1.295-2.362l29.054.933q.28.008.547-.075l27.07-8.521c1.249-.393 2.411.758 1.932 1.913"/><path fill="url(#g)" d="m88.812 31.5-20.4 6.703a.74.74 0 0 0-.523.752l1.702 20.672c.04.487.566.798 1.05.621l5.652-2.057c.53-.193 1.089.193 1.052.725l-.568 8.227c-.038.553.565.94 1.1.705l3.455-1.518c.535-.236 1.14.153 1.1.707l-.924 12.926c-.058.809 1.114 1.087 1.479.35l.244-.49L95.63 45.425c.208-.576-.375-1.122-.985-.923l-5.849 1.904c-.55.18-1.101-.25-1.018-.792l2.055-13.324c.083-.542-.472-.972-1.021-.791"/></g><defs><linearGradient id="b" x1=".448" x2="148.448" y1="16.413" y2="191.541" gradientUnits="userSpaceOnUse"><stop stop-color="#508ab7"/><stop offset="1" stop-color="#2d1342"/></linearGradient><linearGradient id="c" x1="11.186" x2="158.875" y1="19.154" y2="162.67" gradientUnits="userSpaceOnUse"><stop stop-color="#49c7ff"/><stop offset="1" stop-color="#bd36ff"/></linearGradient><linearGradient id="d" x1="56.68" x2="122.209" y1="114.377" y2="145.088" gradientUnits="userSpaceOnUse"><stop stop-color="#49c8ff"/><stop offset="1" stop-color="#be35ff"/></linearGradient><linearGradient id="e" x1="61.766" x2="121.328" y1="117.538" y2="133.876" gradientUnits="userSpaceOnUse"><stop stop-color="#4bc7ff"/><stop offset="1" stop-color="#b93dff"/></linearGradient><linearGradient id="f" x1="45.296" x2="84.585" y1="42.033" y2="84.667" gradientUnits="userSpaceOnUse"><stop stop-color="#41d1ff"/><stop offset="1" stop-color="#bd34fe"/></linearGradient><linearGradient id="g" x1="73.829" x2="85.124" y1="34.598" y2="75.213" gradientUnits="userSpaceOnUse"><stop stop-color="#ffea83"/><stop offset=".083" stop-color="#ffdd35"/><stop offset="1" stop-color="#ffa800"/></linearGradient><clipPath id="a"><path fill="#fff" d="M0 0h160v192H0z"/></clipPath></defs></svg>
